app/img/logo-mob.svg

<svg width="73" height="40" viewBox="0 0 73 40" fill="none" xmlns="http://www.w3.org/2000/svg">
<path fill-rule="evenodd" clip-rule="evenodd" d="M25.143 30.2408C24.8754 29 23.7882 27.1858 23.3173 25.5122C22.7661 23.5543 22.5749 21.6835 22.63 19.5489L22.9151 17.1728L23.0902 16.1315L23.7317 14.2829C23.7492 14.1789 23.8287 14.1743 23.8777 14.1193C23.8823 13.1216 24.276 12.2515 24.8318 11.5658L25.081 11.0321L25.1544 10.5627H21.3173C21.0298 14.0184 20.224 17.8058 20.224 21.4954C19.4335 20.9159 19.9151 21.8616 19.3807 19.0597C19.0375 17.2622 18.0482 11.724 17.4916 10.5627H11.2049C10.8372 11.3303 9.01911 20.5054 9.01911 21.7684H8.74541C8.74541 18.8234 8.16131 15.7668 7.88609 12.7898C7.67202 10.4832 7.80428 10.51 5.20183 10.5543C3.47248 10.5834 1.73089 10.5627 0 10.5627L4.03517 33.0375C4.35168 34.3815 4.29434 34.0856 7.37844 34.0681C8.92661 34.0589 10.4771 34.0665 12.026 34.0665C12.0382 33.4771 13.7852 25.2867 14.3953 23.8639C14.4136 23.8234 14.4488 23.7393 14.4855 23.6812C14.6239 25.3517 16.6323 32.3089 16.6713 34.0658C18.6858 34.0658 20.695 34.0704 22.7079 34.0895C24.0161 34.1025 24.7515 34.9496 25.143 30.2401V30.2408ZM63.9526 31.0604C63.3226 29.9396 63.6797 16.2286 63.6797 13.8425C64.5558 13.8616 65.0459 13.7531 65.0459 14.6621V29.9671C65.0459 30.8226 64.5573 30.8815 63.9526 31.0604ZM56.3005 7.55659C56.7974 8.91974 58.1369 9.7783 59.5252 13.0719C64.1529 24.0482 56.7362 32.0161 56.3005 33.247V34.0665H63.6797C64.1208 32.7347 64.4641 34.5421 67.5008 34.5421C69.0925 34.5421 70.6376 34.224 71.4671 33.1086C72.9044 31.1766 72.1514 25.8632 72.1514 22.8609C72.1514 18.3968 73.2492 12.2944 70.6269 10.7202C69.9304 10.3028 69.3746 10.2806 68.3364 10.2707C64.8471 10.237 65.5191 10.6812 63.6789 11.1093V5.09635H56.2997V7.55659H56.3005Z" fill="black"/>
<path fill-rule="evenodd" clip-rule="evenodd" d="M41.6332 1C52.1271 1 60.634 9.50688 60.634 20C60.634 30.4931 52.1271 39 41.6332 39C31.1401 39 22.6332 30.4931 22.6332 20C22.6332 9.50688 31.1401 1 41.6332 1V1Z" fill="url(#paint0_radial)" stroke="#0086D1" stroke-width="0.352865" stroke-miterlimit="22.9256" stroke-linecap="round" stroke-linejoin="round"/>
<path d="M52.3077 22.5726C52.3163 22.5426 52.3104 22.5102 52.2917 22.4851C52.273 22.4601 52.2437 22.4452 52.2124 22.4449L48.3416 22.4113L48.3408 22.5113L48.2474 22.4755C47.6067 24.1457 46.6854 25.2431 45.5964 26.001C44.5132 26.7537 43.1998 27.136 41.6542 27.136C40.6154 27.136 39.7504 26.9936 38.9736 26.6854C38.197 26.3773 37.5033 25.9015 36.8095 25.2278L36.8095 25.2277C36.1075 24.5468 35.4992 23.904 35.0451 23.1153C34.6047 22.3505 34.3069 21.4439 34.217 20.2267H52.5594C52.6133 20.2267 52.6575 20.184 52.6594 20.1302C52.6754 19.6627 52.6831 19.3073 52.6831 19.0717C52.6831 15.1831 51.6062 12.4794 49.4566 10.3259C47.31 8.17467 44.8624 7.10088 41.4769 7.10088C39.7294 7.10088 38.3021 7.37484 37.0358 7.9254C35.7697 8.47585 34.6702 9.30038 33.5752 10.3939L33.5751 10.3939C31.3795 12.5872 30.2843 15.3506 30.2843 19.3056C30.2843 25.3505 35.3296 31.044 42.0502 31.044C45.0022 31.044 46.9895 29.9644 48.6534 28.3553L48.6534 28.3553C50.3646 26.6995 51.6126 24.9832 52.3077 22.5726ZM41.5013 10.5562C45.3809 10.5562 48.5301 13.215 48.9242 16.7706H34.1388C34.4462 13.3732 37.8385 10.5562 41.5013 10.5562Z" fill="url(#paint1_linear)" stroke="white" stroke-width="0.2" stroke-miterlimit="22.9256" stroke-linejoin="round"/>
<defs>
<radialGradient id="paint0_radial" cx="0" cy="0" r="1" gradientUnits="userSpaceOnUse" gradientTransform="translate(41.2359 19.6027) rotate(43.4982) scale(58.5557 249.27)">
<stop offset="0.172671" stop-color="#0189D2"/>
<stop offset="0.375931" stop-color="#C4C4C4" stop-opacity="0"/>
</radialGradient>
<linearGradient id="paint1_linear" x1="41.4837" y1="7.20088" x2="41.4837" y2="30.944" gradientUnits="userSpaceOnUse">
<stop stop-color="#B7B7B7"/>
<stop offset="0.5" stop-color="#F5F5F5"/>
<stop offset="1" stop-color="#C4C4C4"/>
</linearGradient>
</defs>
</svg>

<svg width="73" height="40" fill="none" xmlns="http://www.w3.org/2000/svg"><path fill-rule="evenodd" clip-rule="evenodd" d="M25.143 30.24c-.268-1.24-1.355-3.054-1.826-4.728-.55-1.958-.742-3.829-.687-5.963l.285-2.376.175-1.041.642-1.85c.017-.103.097-.108.146-.163.004-.997.398-1.867.954-2.553l.249-.534.073-.47h-3.837c-.287 3.456-1.093 7.244-1.093 10.933-.79-.58-.309.367-.843-2.435-.343-1.798-1.333-7.336-1.89-8.497h-6.286c-.368.767-2.186 9.942-2.186 11.205h-.274c0-2.945-.584-6.001-.859-8.978-.214-2.307-.082-2.28-2.684-2.236-1.73.03-3.471.009-5.202.009l4.035 22.474c.317 1.345.26 1.049 3.343 1.031 1.549-.01 3.1-.002 4.648-.002.012-.589 1.76-8.78 2.37-10.202.018-.04.053-.125.09-.183.138 1.67 2.146 8.628 2.185 10.385 2.015 0 4.024.004 6.037.023 1.308.014 2.044.86 2.435-3.849zm38.81.82c-.63-1.12-.273-14.831-.273-17.217.876.019 1.366-.09 1.366.82v15.304c0 .856-.489.915-1.093 1.093zM56.3 7.557c.497 1.363 1.837 2.221 3.225 5.515 4.628 10.976-2.789 18.944-3.224 20.175v.82h7.379c.44-1.332.784.475 3.82.475 1.593 0 3.138-.318 3.967-1.433 1.437-1.932.684-7.246.684-10.248 0-4.464 1.098-10.567-1.524-12.14-.697-.418-1.252-.44-2.29-.45-3.49-.034-2.818.41-4.658.838V5.096h-7.38v2.46h.002z" fill="#000"/><path fill-rule="evenodd" clip-rule="evenodd" d="M41.633 1c10.494 0 19.001 8.507 19.001 19s-8.507 19-19 19c-10.494 0-19-8.507-19-19s8.506-19 19-19v0z" fill="url(#paint0_radial)" stroke="#0086D1" stroke-width=".353" stroke-miterlimit="22.926" stroke-linecap="round" stroke-linejoin="round"/><path d="M52.308 22.573a.1.1 0 00-.096-.128l-3.87-.034-.001.1-.094-.035c-.64 1.67-1.562 2.767-2.65 3.525-1.084.753-2.397 1.135-3.943 1.135-1.039 0-1.904-.142-2.68-.45-.777-.309-1.47-.785-2.164-1.458h0c-.703-.681-1.31-1.324-1.765-2.113-.44-.764-.738-1.671-.828-2.888h18.342a.1.1 0 00.1-.097c.016-.467.024-.823.024-1.058 0-3.889-1.077-6.593-3.226-8.746C47.31 8.175 44.862 7.1 41.477 7.1c-1.748 0-3.175.274-4.441.824-1.266.55-2.366 1.375-3.46 2.469h0c-2.197 2.193-3.292 4.957-3.292 8.912 0 6.044 5.046 11.738 11.766 11.738 2.952 0 4.94-1.08 6.603-2.689h0c1.712-1.655 2.96-3.372 3.655-5.782zM41.5 10.556c3.88 0 7.03 2.659 7.423 6.215H34.14c.307-3.398 3.7-6.215 7.362-6.215z" fill="url(#paint1_linear)" stroke="#fff" stroke-width=".2" stroke-miterlimit="22.926" stroke-linejoin="round"/><defs><radialGradient id="paint0_radial" cx="0" cy="0" r="1" gradientUnits="userSpaceOnUse" gradientTransform="matrix(42.47607 40.30575 -171.58046 180.81946 41.236 19.603)"><stop offset=".173" stop-color="#0189D2"/><stop offset=".376" stop-color="#C4C4C4" stop-opacity="0"/></radialGradient><linearGradient id="paint1_linear" x1="41.484" y1="7.201" x2="41.484" y2="30.944" gradientUnits="userSpaceOnUse"><stop stop-color="#B7B7B7"/><stop offset=".5" stop-color="#F5F5F5"/><stop offset="1" stop-color="#C4C4C4"/></linearGradient></defs></svg>
